packages/kaspersky-hexa-ui-icons/src/iconsSVGs/16/SearchPet.svg

<svg width="16" height="16" viewBox="0 0 16 16" fill="none" xmlns="http://www.w3.org/2000/svg">
<path d="M7.45739 5.9919C7.573 6.49266 7.35923 6.9696 6.97992 7.05717C6.60061 7.14474 6.1994 6.80978 6.08379 6.30902C5.96818 5.80826 6.18195 5.33132 6.56126 5.24375C6.94057 5.15618 7.34178 5.49113 7.45739 5.9919Z" fill="black"/>
<path d="M7.01227 7.80783C7.29751 7.29439 8.0359 7.29438 8.32114 7.80781L8.49773 8.12565C8.59425 8.29938 8.71451 8.45881 8.85504 8.59935L9.08032 8.82463C9.6008 9.34511 9.13644 10.2255 8.41298 10.0898L8.06091 10.0238C7.80039 9.97497 7.53305 9.97497 7.27253 10.0238L6.92046 10.0898C6.197 10.2255 5.73264 9.34511 6.25311 8.82463L6.47839 8.59936C6.61893 8.45882 6.73919 8.29938 6.83572 8.12563L7.01227 7.80783Z" fill="black"/>
<path d="M6.10468 7.16615C6.35088 7.59258 6.26621 8.10238 5.91556 8.30483C5.56492 8.50727 5.08108 8.3257 4.83488 7.89927C4.58868 7.47285 4.67335 6.96304 5.024 6.7606C5.37465 6.55815 5.85848 6.73973 6.10468 7.16615Z" fill="black"/>
<path d="M9.22826 7.16615C8.98207 7.59258 9.06674 8.10238 9.41738 8.30483C9.76803 8.50727 10.2519 8.3257 10.4981 7.89927C10.7443 7.47285 10.6596 6.96304 10.3089 6.7606C9.9583 6.55815 9.47446 6.73973 9.22826 7.16615Z" fill="black"/>
<path d="M7.87603 5.9919C7.76042 6.49266 7.9742 6.9696 8.35351 7.05717C8.73282 7.14474 9.13403 6.80978 9.24964 6.30902C9.36525 5.80826 9.15148 5.33132 8.77217 5.24375C8.39286 5.15618 7.99164 5.49113 7.87603 5.9919Z" fill="black"/>
<path fill-rule="evenodd" clip-rule="evenodd" d="M1.3501 7.66676C1.3501 4.17817 4.17817 1.3501 7.66676 1.3501C11.1554 1.3501 13.9834 4.17817 13.9834 7.66676C13.9834 9.17694 13.4535 10.5633 12.5694 11.6501L14.4597 13.5405C14.7136 13.7943 14.7136 14.2059 14.4597 14.4597C14.2059 14.7136 13.7943 14.7136 13.5405 14.4597L11.6501 12.5694C10.5633 13.4535 9.17694 13.9834 7.66676 13.9834C4.17817 13.9834 1.3501 11.1554 1.3501 7.66676ZM7.66676 2.6501C4.89614 2.6501 2.6501 4.89614 2.6501 7.66676C2.6501 10.4374 4.89614 12.6834 7.66676 12.6834C10.4374 12.6834 12.6834 10.4374 12.6834 7.66676C12.6834 4.89614 10.4374 2.6501 7.66676 2.6501Z" fill="black"/>
</svg>

<svg xmlns="http://www.w3.org/2000/svg" width="16" height="16" fill="none" viewBox="0 0 16 16"><path fill="#000" fill-rule="evenodd" d="M1.35 7.6666C1.35 4.178 4.178 1.35 7.6666 1.35s6.3167 2.828 6.3167 6.3166c0 1.5102-.53 2.8966-1.414 3.9834l1.8903 1.8904a.65.65 0 0 1-.9192.9192L11.65 12.5693c-1.0868.884-2.4732 1.414-3.9834 1.414-3.4886 0-6.3166-2.8281-6.3166-6.3167M7.6666 2.65C4.896 2.65 2.65 4.896 2.65 7.6666s2.246 5.0167 5.0166 5.0167 5.0167-2.246 5.0167-5.0167c0-2.7706-2.246-5.0166-5.0167-5.0166m-.6868 4.407c.3793-.0875.593-.5645.4775-1.0652-.1156-.5008-.5168-.8357-.8962-.7482s-.593.5645-.4774 1.0653.5168.8357.8961.7481m1.3736 0c-.3793-.0875-.5931-.5645-.4775-1.0652.1156-.5008.5168-.8357.8962-.7482s.593.5645.4774 1.0653-.5168.8357-.8961.7481m-2.438 1.2477c.3507-.2025.4354-.7122.1892-1.1387s-.73-.608-1.0807-.4055-.4353.7122-.1891 1.1387.73.608 1.0806.4055m3.5019 0c-.3507-.2025-.4354-.7122-.1892-1.1387s.73-.608 1.0807-.4055.4353.7122.1891 1.1387-.73.608-1.0806.4055m-2.4051-.497c.2852-.5134 1.0236-.5134 1.3088 0l.1766.3178a2.14 2.14 0 0 0 .3573.4737l.2253.2253c.5205.5205.0561 1.4009-.6673 1.2652l-.3521-.066a2.14 2.14 0 0 0-.7884 0l-.352.066c-.7235.1357-1.1879-.7447-.6674-1.2652l.2253-.2253c.1405-.1405.2608-.3.3573-.4737z"/></svg>
